src/cmd/32/rejecttrackedchangetonext.svg

<?xml version="1.0" encoding="UTF-8" standalone="no"?>
<svg
   xmlns:dc="http://purl.org/dc/elements/1.1/"
   xmlns:cc="http://creativecommons.org/ns#"
   xmlns:rdf="http://www.w3.org/1999/02/22-rdf-syntax-ns#"
   xmlns:svg="http://www.w3.org/2000/svg"
   xmlns="http://www.w3.org/2000/svg"
   xmlns:xlink="http://www.w3.org/1999/xlink"
   xmlns:sodipodi="http://sodipodi.sourceforge.net/DTD/sodipodi-0.dtd"
   xmlns:inkscape="http://www.inkscape.org/namespaces/inkscape"
   height="32"
   width="32"
   version="1.1"
   id="svg124"
   sodipodi:docname="rejecttrackedchangetonext.svg"
   inkscape:version="0.92.5 (2060ec1f9f, 2020-04-08)"
   inkscape:export-filename="/home/jupiter007/Libreoffice yaru theme fullcolor/build/cmd/32/rejecttrackedchangetonext.png"
   inkscape:export-xdpi="95"
   inkscape:export-ydpi="95">
  <metadata
     id="metadata130">
    <rdf:RDF>
      <cc:Work
         rdf:about="">
        <dc:format>image/svg+xml</dc:format>
        <dc:type
           rdf:resource="http://purl.org/dc/dcmitype/StillImage" />
      </cc:Work>
    </rdf:RDF>
  </metadata>
  <defs
     id="defs128" />
  <sodipodi:namedview
     pagecolor="#ffffff"
     bordercolor="#666666"
     borderopacity="1"
     objecttolerance="10"
     gridtolerance="10"
     guidetolerance="10"
     inkscape:pageopacity="0"
     inkscape:pageshadow="2"
     inkscape:window-width="1920"
     inkscape:window-height="1011"
     id="namedview126"
     showgrid="true"
     inkscape:zoom="20.85965"
     inkscape:cx="17.513316"
     inkscape:cy="12.788542"
     inkscape:window-x="0"
     inkscape:window-y="32"
     inkscape:window-maximized="1"
     inkscape:current-layer="svg124">
    <inkscape:grid
       type="xygrid"
       id="grid981" />
  </sodipodi:namedview>
  <linearGradient
     id="a"
     gradientTransform="matrix(-1.3333 0 0 1.3333 44.834858 -1.156926)"
     gradientUnits="userSpaceOnUse"
     x1="17.150999"
     x2="17.150999"
     y1="5.88"
     y2="17.211">
    <stop
       offset="0"
       stop-color="#90dbec"
       id="stop2" />
    <stop
       offset=".262"
       stop-color="#55c1ec"
       id="stop4" />
    <stop
       offset=".705"
       stop-color="#3689e6"
       id="stop6" />
    <stop
       offset="1"
       stop-color="#2b63a0"
       id="stop8" />
  </linearGradient>
  <linearGradient
     id="b"
     gradientTransform="matrix(0 -.71624876 .76904744 0 -21.827476 35.995479)"
     gradientUnits="userSpaceOnUse"
     x1="40.958"
     x2="18.681"
     y1="46.971001"
     y2="46.971001">
    <stop
       offset="0"
       stop-color="#fff"
       id="stop11" />
    <stop
       offset=".45"
       stop-color="#fff"
       stop-opacity=".235"
       id="stop13" />
    <stop
       offset=".65"
       stop-color="#fff"
       stop-opacity=".157"
       id="stop15" />
    <stop
       offset="1"
       stop-color="#fff"
       stop-opacity=".392"
       id="stop17" />
  </linearGradient>
  <linearGradient
     id="c"
     gradientTransform="matrix(.53153 -.53097 .53153 .53097 -14.042 11.965)"
     gradientUnits="userSpaceOnUse"
     x1="36.011"
     x2="16.331"
     xlink:href="#g"
     y1="13.023"
     y2="32.702" />
  <linearGradient
     id="d"
     gradientTransform="matrix(.53153 -.53097 .53153 .53097 -14.578 12.234)"
     gradientUnits="userSpaceOnUse"
     x1="28.449"
     x2="16.331"
     xlink:href="#g"
     y1="20.584"
     y2="32.702" />
  <linearGradient
     id="e"
     gradientTransform="matrix(.36682503 0 0 .35447295 46.948399 24.314666)"
     gradientUnits="userSpaceOnUse"
     x1="5.515625"
     x2="2.93"
     y1="-26.405602"
     y2="28.474001">
    <stop
       offset="0"
       stop-color="#f8b17e"
       id="stop22" />
    <stop
       offset=".312"
       stop-color="#e35d4f"
       id="stop24" />
    <stop
       offset=".571"
       stop-color="#c6262e"
       id="stop26" />
    <stop
       offset="1"
       stop-color="#690b54"
       id="stop28" />
  </linearGradient>
  <linearGradient
     id="f"
     gradientTransform="matrix(.63360687 0 0 .63805131 25.357512 17.616261)"
     gradientUnits="userSpaceOnUse"
     x1="1.004"
     x2=".228"
     y1="20.709"
     y2="-4.382">
    <stop
       offset="0"
       stop-color="#791235"
       id="stop31" />
    <stop
       offset="1"
       stop-color="#dd3b27"
       id="stop33" />
  </linearGradient>
  <linearGradient
     id="g">
    <stop
       offset="0"
       stop-color="#fff"
       id="stop36" />
    <stop
       offset="1"
       stop-color="#fff"
       stop-opacity="0"
       id="stop38" />
  </linearGradient>
  <linearGradient
     id="h">
    <stop
       offset="0"
       id="stop41" />
    <stop
       offset="1"
       stop-opacity="0"
       id="stop43" />
  </linearGradient>
  <linearGradient
     id="i"
     gradientTransform="matrix(.56757 0 0 .72973 2.378 -2.514)"
     gradientUnits="userSpaceOnUse"
     x1="24"
     x2="24"
     y1="5.564"
     y2="43">
    <stop
       offset="0"
       stop-color="#fff"
       id="stop46" />
    <stop
       offset=".036"
       stop-color="#fff"
       stop-opacity=".235"
       id="stop48" />
    <stop
       offset=".951"
       stop-color="#fff"
       stop-opacity=".157"
       id="stop50" />
    <stop
       offset="1"
       stop-color="#fff"
       stop-opacity=".392"
       id="stop52" />
  </linearGradient>
  <linearGradient
     id="j"
     gradientTransform="matrix(.62857 0 0 .6084 .914 -.535)"
     gradientUnits="userSpaceOnUse"
     x1="25.132"
     x2="25.132"
     y1=".985"
     y2="47.013">
    <stop
       offset="0"
       stop-color="#f4f4f4"
       id="stop55" />
    <stop
       offset="1"
       stop-color="#dbdbdb"
       id="stop57" />
  </linearGradient>
  <radialGradient
     id="k"
     cx="605.714"
     cy="486.648"
     gradientTransform="matrix(.01566 0 0 .00824 17.61 25.98)"
     gradientUnits="userSpaceOnUse"
     r="117.143"
     xlink:href="#h" />
  <radialGradient
     id="l"
     cx="605.714"
     cy="486.648"
     gradientTransform="matrix(-.01566 0 0 .00824 14.39 25.98)"
     gradientUnits="userSpaceOnUse"
     r="117.143"
     xlink:href="#h" />
  <linearGradient
     id="m"
     gradientTransform="matrix(.04577 0 0 .00824 -.542 25.98)"
     gradientUnits="userSpaceOnUse"
     x1="302.857"
     x2="302.857"
     y1="366.648"
     y2="609.505">
    <stop
       offset="0"
       stop-opacity="0"
       id="stop62" />
    <stop
       offset=".5"
       id="stop64" />
    <stop
       offset="1"
       stop-opacity="0"
       id="stop66" />
  </linearGradient>
  <linearGradient
     id="n"
     gradientTransform="matrix(.53064 0 0 .5897 39.27 -1.792)"
     gradientUnits="userSpaceOnUse"
     x1="-51.786"
     x2="-51.786"
     y1="50.786"
     y2="2.906">
    <stop
       offset="0"
       stop-opacity=".318"
       id="stop69" />
    <stop
       offset="1"
       stop-opacity=".24"
       id="stop71" />
  </linearGradient>
  <path
     sodipodi:nodetypes="cccscsccccccccscscccccc"
     inkscape:connector-curvature="0"
     id="path4237-1"
     d="M 6.99414,2.9994151 C 5.73594,3.0139151 4.815249,2.9688111 4.0625,3.3841807 3.68613,3.5918409 3.389269,3.9435679 3.224609,4.3822279 3.059939,4.8208979 3,5.3418149 3,5.9994149 v 1.488282 17.5123011 c 0,0.65761 0.0599,1.178577 0.224609,1.617188 0.16468,0.438611 0.461531,0.788524 0.837891,0.996093 0.752719,0.41513 1.67354,0.371649 2.93164,0.386719 h 0.002 18.00586 0.0039 c 1.25819,-0.0145 2.178891,0.0306 2.931641,-0.384766 0.37637,-0.20766 0.673221,-0.559386 0.837891,-0.998046 0.164539,-0.438671 0.224618,-0.959578 0.224618,-1.617188 V 7.4662129 5.9994149 c 0,-0.6576 -0.0599,-1.178577 -0.224609,-1.617187 -0.16468,-0.4386 -0.461531,-0.788534 -0.837891,-0.996094 -0.75277,-0.41513 -1.673601,-0.3716388 -2.931691,-0.3867188 h -0.002 -18.00586 z"
     style="font-style:normal;font-variant:normal;font-weight:normal;font-stretch:normal;font-size:15px;line-height:125%;font-family:Ubuntu;-inkscape-font-specification:Ubuntu;text-align:center;letter-spacing:0px;word-spacing:0px;writing-mode:lr-tb;text-anchor:middle;display:inline;opacity:0.7;fill:#000000;fill-opacity:1;stroke:none;stroke-width:0.99980211" />
  <path
     inkscape:connector-curvature="0"
     id="path1993"
     d="m 11.983369,4.0265999 c -1.556581,0.0108 -5.109991,-0.01175 -6.659942,0.03877 -0.461229,0.04267 -1.016188,0.206419 -1.155339,0.709967 -0.218994,0.635346 -0.108414,1.333787 -0.145796,1.981924 -0.0078,2.2970853 -0.02297,16.5964281 0.02152,18.8857801 0.0391,0.461929 0.20255,1.012666 0.698755,1.163666 0.632456,0.225082 1.284144,0.12274 1.935974,0.154298 1.424235,0.0068 12.850564,0.01102 14.276421,0.01131 1.704531,3.5e-4 3.408388,-0.005 5.10719,-0.01851 0.511911,-0.01201 1.183699,0.01993 1.584745,-0.405191 0.421097,-0.539783 0.287073,-1.268021 0.322745,-1.903787 0.01187,-2.444323 0.02769,-16.9110941 -0.0219,-19.3567941 -0.04928,-0.402041 -0.169992,-0.862952 -0.575139,-1.044476 -0.668169,-0.294097 -1.426205,-0.168018 -2.125921,-0.205572 -1.754407,-0.0118 -11.508874,-0.01248 -13.263313,-0.01139 z"
     style="opacity:1;vector-effect:none;fill:#ffffff;fill-opacity:1;stroke:none;stroke-width:1;stroke-linecap:round;stroke-linejoin:bevel;stroke-miterlimit:4;stroke-dasharray:none;stroke-dashoffset:0;stroke-opacity:1"
     sodipodi:nodetypes="cccccccsccccccc" />
  <path
     style="fill:#232629;stroke-width:1.37436855"
     d="M 9.000024,9.9999972 V 10.999997 H 26.000025 V 9.9999972 Z"
     id="path855"
     inkscape:connector-curvature="0" />
  <path
     inkscape:connector-curvature="0"
     style="fill:#232629"
     d="m 6.000024,12.999998 v 1 h 8.000001 v -1 z"
     id="path853" />
  <path
     style="fill:#232629"
     d="m 17.000025,16.999998 v 1 h 9 v -1 z"
     id="path2"
     inkscape:connector-curvature="0" />
  <path
     style="fill:#c7162b"
     d="m 26.000025,6.9999979 v 1 h -7 v -1 z"
     id="path849"
     inkscape:connector-curvature="0" />
  <path
     inkscape:connector-curvature="0"
     style="fill:#c7162b"
     d="m 6.000024,9.9999972 v 0.9999998 h 2 V 9.9999972 Z"
     id="path847" />
  <path
     style="fill:#c7162b;stroke-width:1.91485417"
     d="m 15.000025,12.999998 v 1 h 11 v -1 z"
     id="path845"
     inkscape:connector-curvature="0" />
  <path
     style="fill:#c7162b;stroke-width:2.23606801"
     d="m 6.000024,16.999998 v 1 h 10.000001 v -1 z"
     id="path4"
     inkscape:connector-curvature="0" />
  <path
     id="path857"
     d="m 18.000025,6.9999979 v 1 H 6.000024 v -1 z"
     style="fill:#232629;stroke-width:1.15470052"
     inkscape:connector-curvature="0" />
  <path
     inkscape:connector-curvature="0"
     id="path867"
     d="m 9.000024,22.999998 v 1 h 17.000001 v -1 z"
     style="fill:#232629;stroke-width:1.37436855" />
  <path
     inkscape:connector-curvature="0"
     id="path869"
     d="m 26.000025,19.999998 v 1 h -7 v -1 z"
     style="fill:#c7162b" />
  <path
     id="path871"
     d="m 27.000024,22.999998 v 1 h 2 v -1 z"
     style="fill:#c7162b"
     inkscape:connector-curvature="0" />
  <path
     inkscape:connector-curvature="0"
     style="fill:#232629;stroke-width:1.15470052"
     d="m 18.000025,19.999998 v 1 H 6.000024 v -1 z"
     id="path873" />
  <ellipse
     style="opacity:1;fill:#c7162b;fill-opacity:1;fill-rule:nonzero;stroke:none;stroke-width:2.25000048;stroke-linecap:round;stroke-linejoin:round;stroke-miterlimit:4;stroke-dasharray:none;stroke-opacity:0.98705498"
     id="path904"
     cx="26.5"
     cy="26.5"
     rx="4.4999995"
     ry="4.500001" />
  <path
     style="opacity:1;fill:#ffffff;fill-opacity:1;stroke:none;stroke-width:2;stroke-linejoin:round;stroke-miterlimit:4;stroke-dasharray:none;stroke-opacity:1"
     d="m 24.37868,25.085784 1.414213,1.414214 -1.414213,1.414214 0.707106,0.707106 L 26.5,27.207105 27.914214,28.621318 28.62132,27.914212 27.207107,26.499998 28.62132,25.085784 27.914214,24.378678 26.5,25.792891 25.085786,24.378678 Z"
     id="rect899"
     inkscape:connector-curvature="0" />
  <path
     sodipodi:nodetypes="cccccccc"
     style="opacity:0.7;fill:#000000;fill-opacity:1;stroke:#000000;stroke-width:2;stroke-linecap:butt;stroke-linejoin:round;stroke-miterlimit:4;stroke-dasharray:none;stroke-opacity:1"
     d="M 30,6.5 24,11 V 8 H 19 V 5 h 5 V 2 Z"
     id="path839"
     inkscape:connector-curvature="0" />
  <path
     sodipodi:nodetypes="cccccccc"
     id="path841"
     d="M 30,6.5 24,11 V 8 H 19 V 5 h 5 V 2 Z"
     style="fill:#ffffff;fill-opacity:1;stroke:none;stroke-width:1px;stroke-linecap:butt;stroke-linejoin:miter;stroke-opacity:1"
     inkscape:connector-curvature="0" />
</svg>

<?xml version="1.0" encoding="UTF-8" standalone="no"?>
<svg
   xmlns:dc="http://purl.org/dc/elements/1.1/"
   xmlns:cc="http://creativecommons.org/ns#"
   xmlns:rdf="http://www.w3.org/1999/02/22-rdf-syntax-ns#"
   xmlns:svg="http://www.w3.org/2000/svg"
   xmlns="http://www.w3.org/2000/svg"
   xmlns:xlink="http://www.w3.org/1999/xlink"
   xmlns:sodipodi="http://sodipodi.sourceforge.net/DTD/sodipodi-0.dtd"
   xmlns:inkscape="http://www.inkscape.org/namespaces/inkscape"
   height="32"
   width="32"
   version="1.1"
   id="svg124"
   sodipodi:docname="rejecttrackedchangetonext.svg"
   inkscape:version="1.0.1 (3bc2e813f5, 2020-09-07)"
   inkscape:export-filename="/home/jupiter007/Libreoffice yaru theme fullcolor/build/cmd/32/rejecttrackedchangetonext.png"
   inkscape:export-xdpi="95"
   inkscape:export-ydpi="95">
  <metadata
     id="metadata130">
    <rdf:RDF>
      <cc:Work
         rdf:about="">
        <dc:format>image/svg+xml</dc:format>
        <dc:type
           rdf:resource="http://purl.org/dc/dcmitype/StillImage" />
      </cc:Work>
    </rdf:RDF>
  </metadata>
  <defs
     id="defs128" />
  <sodipodi:namedview
     pagecolor="#ffffff"
     bordercolor="#666666"
     borderopacity="1"
     objecttolerance="10"
     gridtolerance="10"
     guidetolerance="10"
     inkscape:pageopacity="0"
     inkscape:pageshadow="2"
     inkscape:window-width="1920"
     inkscape:window-height="1016"
     id="namedview126"
     showgrid="true"
     inkscape:zoom="14.75"
     inkscape:cx="5.9856042"
     inkscape:cy="9.732441"
     inkscape:window-x="0"
     inkscape:window-y="27"
     inkscape:window-maximized="1"
     inkscape:current-layer="svg124"
     inkscape:document-rotation="0">
    <inkscape:grid
       type="xygrid"
       id="grid981" />
  </sodipodi:namedview>
  <linearGradient
     id="a"
     gradientTransform="matrix(-1.3333 0 0 1.3333 44.834858 -1.156926)"
     gradientUnits="userSpaceOnUse"
     x1="17.150999"
     x2="17.150999"
     y1="5.88"
     y2="17.211">
    <stop
       offset="0"
       stop-color="#90dbec"
       id="stop2" />
    <stop
       offset=".262"
       stop-color="#55c1ec"
       id="stop4" />
    <stop
       offset=".705"
       stop-color="#3689e6"
       id="stop6" />
    <stop
       offset="1"
       stop-color="#2b63a0"
       id="stop8" />
  </linearGradient>
  <linearGradient
     id="b"
     gradientTransform="matrix(0 -.71624876 .76904744 0 -21.827476 35.995479)"
     gradientUnits="userSpaceOnUse"
     x1="40.958"
     x2="18.681"
     y1="46.971001"
     y2="46.971001">
    <stop
       offset="0"
       stop-color="#fff"
       id="stop11" />
    <stop
       offset=".45"
       stop-color="#fff"
       stop-opacity=".235"
       id="stop13" />
    <stop
       offset=".65"
       stop-color="#fff"
       stop-opacity=".157"
       id="stop15" />
    <stop
       offset="1"
       stop-color="#fff"
       stop-opacity=".392"
       id="stop17" />
  </linearGradient>
  <linearGradient
     id="c"
     gradientTransform="matrix(.53153 -.53097 .53153 .53097 -14.042 11.965)"
     gradientUnits="userSpaceOnUse"
     x1="36.011"
     x2="16.331"
     xlink:href="#g"
     y1="13.023"
     y2="32.702" />
  <linearGradient
     id="d"
     gradientTransform="matrix(.53153 -.53097 .53153 .53097 -14.578 12.234)"
     gradientUnits="userSpaceOnUse"
     x1="28.449"
     x2="16.331"
     xlink:href="#g"
     y1="20.584"
     y2="32.702" />
  <linearGradient
     id="e"
     gradientTransform="matrix(.36682503 0 0 .35447295 46.948399 24.314666)"
     gradientUnits="userSpaceOnUse"
     x1="5.515625"
     x2="2.93"
     y1="-26.405602"
     y2="28.474001">
    <stop
       offset="0"
       stop-color="#f8b17e"
       id="stop22" />
    <stop
       offset=".312"
       stop-color="#e35d4f"
       id="stop24" />
    <stop
       offset=".571"
       stop-color="#c6262e"
       id="stop26" />
    <stop
       offset="1"
       stop-color="#690b54"
       id="stop28" />
  </linearGradient>
  <linearGradient
     id="f"
     gradientTransform="matrix(.63360687 0 0 .63805131 25.357512 17.616261)"
     gradientUnits="userSpaceOnUse"
     x1="1.004"
     x2=".228"
     y1="20.709"
     y2="-4.382">
    <stop
       offset="0"
       stop-color="#791235"
       id="stop31" />
    <stop
       offset="1"
       stop-color="#dd3b27"
       id="stop33" />
  </linearGradient>
  <linearGradient
     id="g">
    <stop
       offset="0"
       stop-color="#fff"
       id="stop36" />
    <stop
       offset="1"
       stop-color="#fff"
       stop-opacity="0"
       id="stop38" />
  </linearGradient>
  <linearGradient
     id="h">
    <stop
       offset="0"
       id="stop41" />
    <stop
       offset="1"
       stop-opacity="0"
       id="stop43" />
  </linearGradient>
  <linearGradient
     id="i"
     gradientTransform="matrix(.56757 0 0 .72973 2.378 -2.514)"
     gradientUnits="userSpaceOnUse"
     x1="24"
     x2="24"
     y1="5.564"
     y2="43">
    <stop
       offset="0"
       stop-color="#fff"
       id="stop46" />
    <stop
       offset=".036"
       stop-color="#fff"
       stop-opacity=".235"
       id="stop48" />
    <stop
       offset=".951"
       stop-color="#fff"
       stop-opacity=".157"
       id="stop50" />
    <stop
       offset="1"
       stop-color="#fff"
       stop-opacity=".392"
       id="stop52" />
  </linearGradient>
  <linearGradient
     id="j"
     gradientTransform="matrix(.62857 0 0 .6084 .914 -.535)"
     gradientUnits="userSpaceOnUse"
     x1="25.132"
     x2="25.132"
     y1=".985"
     y2="47.013">
    <stop
       offset="0"
       stop-color="#f4f4f4"
       id="stop55" />
    <stop
       offset="1"
       stop-color="#dbdbdb"
       id="stop57" />
  </linearGradient>
  <radialGradient
     id="k"
     cx="605.714"
     cy="486.648"
     gradientTransform="matrix(.01566 0 0 .00824 17.61 25.98)"
     gradientUnits="userSpaceOnUse"
     r="117.143"
     xlink:href="#h" />
  <radialGradient
     id="l"
     cx="605.714"
     cy="486.648"
     gradientTransform="matrix(-.01566 0 0 .00824 14.39 25.98)"
     gradientUnits="userSpaceOnUse"
     r="117.143"
     xlink:href="#h" />
  <linearGradient
     id="m"
     gradientTransform="matrix(.04577 0 0 .00824 -.542 25.98)"
     gradientUnits="userSpaceOnUse"
     x1="302.857"
     x2="302.857"
     y1="366.648"
     y2="609.505">
    <stop
       offset="0"
       stop-opacity="0"
       id="stop62" />
    <stop
       offset=".5"
       id="stop64" />
    <stop
       offset="1"
       stop-opacity="0"
       id="stop66" />
  </linearGradient>
  <linearGradient
     id="n"
     gradientTransform="matrix(.53064 0 0 .5897 39.27 -1.792)"
     gradientUnits="userSpaceOnUse"
     x1="-51.786"
     x2="-51.786"
     y1="50.786"
     y2="2.906">
    <stop
       offset="0"
       stop-opacity=".318"
       id="stop69" />
    <stop
       offset="1"
       stop-opacity=".24"
       id="stop71" />
  </linearGradient>
  <path
     id="path4237-1"
     style="font-style:normal;font-variant:normal;font-weight:normal;font-stretch:normal;font-size:15px;line-height:125%;font-family:Ubuntu;-inkscape-font-specification:Ubuntu;text-align:center;letter-spacing:0px;word-spacing:0px;writing-mode:lr-tb;text-anchor:middle;display:inline;opacity:0.7;fill:#000000;fill-opacity:1;stroke:none;stroke-width:0.99980211"
     d="M 6.9941406 3 C 5.7359406 3.0145 4.815249 2.969396 4.0625 3.3847656 C 3.68613 3.5924258 3.3892694 3.9441525 3.2246094 4.3828125 C 3.0599394 4.8214825 3 5.3424 3 6 L 3 7.4882812 L 3 25 C 3 25.65761 3.0599004 26.178577 3.2246094 26.617188 C 3.3892894 27.055799 3.68614 27.405712 4.0625 27.613281 C 4.815219 28.028411 5.7360406 27.98493 6.9941406 28 L 6.9960938 28 L 25.001953 28 L 25.005859 28 C 26.264049 27.9855 27.18475 28.0306 27.9375 27.615234 C 28.31387 27.407574 28.610721 27.055848 28.775391 26.617188 C 28.93993 26.178517 29 25.65761 29 25 L 29 7.6796875 L 26 10.080078 L 26 6 L 19 6 L 19 3 L 6.9980469 3 L 6.9941406 3 z " />
  <path
     id="path1993"
     style="opacity:1;vector-effect:none;fill:#ffffff;fill-opacity:1;stroke:none;stroke-width:1;stroke-linecap:round;stroke-linejoin:bevel;stroke-miterlimit:4;stroke-dasharray:none;stroke-dashoffset:0;stroke-opacity:1"
     d="M 11.982422 4.0273438 C 10.425841 4.0381437 6.8741698 4.0139331 5.3242188 4.0644531 C 4.8629897 4.1071231 4.3071197 4.2718426 4.1679688 4.7753906 C 3.9489748 5.4107366 4.0588664 6.1096755 4.0214844 6.7578125 C 4.0136844 9.0548978 3.9984787 23.353226 4.0429688 25.642578 C 4.0820688 26.104507 4.2459825 26.655641 4.7421875 26.806641 C 5.3746435 27.031723 6.0259044 26.929379 6.6777344 26.960938 C 8.1019694 26.967737 19.529221 26.972366 20.955078 26.972656 C 22.659609 26.973006 24.363698 26.966635 26.0625 26.953125 C 26.574411 26.941115 27.245438 26.973949 27.646484 26.548828 C 28.067581 26.009045 27.933078 25.280297 27.96875 24.644531 C 27.978642 22.607595 27.983745 13.334379 27.958984 8.5136719 L 26 10.080078 L 26 6 L 19 6 L 19 4.0332031 C 15.962584 4.0314041 12.910665 4.026767 11.982422 4.0273438 z " />
  <path
     style="fill:#232629;stroke-width:1.37436855"
     d="M 9.000024,9.9999972 V 10.999997 H 26.000025 V 9.9999972 Z"
     id="path855"
     inkscape:connector-curvature="0" />
  <path
     inkscape:connector-curvature="0"
     style="fill:#232629"
     d="m 6.000024,12.999998 v 1 h 8.000001 v -1 z"
     id="path853" />
  <path
     style="fill:#232629"
     d="m 17.000025,16.999998 v 1 h 9 v -1 z"
     id="path2"
     inkscape:connector-curvature="0" />
  <path
     id="path849"
     style="fill:#c7162b"
     d="M 19 7 L 19 8 L 26 8 L 26 7 L 19 7 z " />
  <path
     inkscape:connector-curvature="0"
     style="fill:#c7162b"
     d="m 6.000024,9.9999972 v 0.9999998 h 2 V 9.9999972 Z"
     id="path847" />
  <path
     style="fill:#c7162b;stroke-width:1.91485417"
     d="m 15.000025,12.999998 v 1 h 11 v -1 z"
     id="path845"
     inkscape:connector-curvature="0" />
  <path
     style="fill:#c7162b;stroke-width:2.23606801"
     d="m 6.000024,16.999998 v 1 h 10.000001 v -1 z"
     id="path4"
     inkscape:connector-curvature="0" />
  <path
     id="path857"
     d="m 18.000025,6.9999979 v 1 H 6.000024 v -1 z"
     style="fill:#232629;stroke-width:1.15470052"
     inkscape:connector-curvature="0" />
  <path
     inkscape:connector-curvature="0"
     id="path867"
     d="m 9.000024,22.999998 v 1 h 17.000001 v -1 z"
     style="fill:#232629;stroke-width:1.37436855" />
  <path
     inkscape:connector-curvature="0"
     id="path869"
     d="m 26.000025,19.999998 v 1 h -7 v -1 z"
     style="fill:#c7162b" />
  <path
     id="path871"
     d="m 27.000024,22.999998 v 1 h 2 v -1 z"
     style="fill:#c7162b"
     inkscape:connector-curvature="0" />
  <path
     inkscape:connector-curvature="0"
     style="fill:#232629;stroke-width:1.15470052"
     d="m 18.000025,19.999998 v 1 H 6.000024 v -1 z"
     id="path873" />
  <ellipse
     style="opacity:1;fill:#c7162b;fill-opacity:1;fill-rule:nonzero;stroke:none;stroke-width:2.25000048;stroke-linecap:round;stroke-linejoin:round;stroke-miterlimit:4;stroke-dasharray:none;stroke-opacity:0.98705498"
     id="path904"
     cx="26.5"
     cy="26.5"
     rx="4.4999995"
     ry="4.500001" />
  <path
     style="opacity:1;fill:#ffffff;fill-opacity:1;stroke:none;stroke-width:2;stroke-linejoin:round;stroke-miterlimit:4;stroke-dasharray:none;stroke-opacity:1"
     d="m 24.37868,25.085784 1.414213,1.414214 -1.414213,1.414214 0.707106,0.707106 L 26.5,27.207105 27.914214,28.621318 28.62132,27.914212 27.207107,26.499998 28.62132,25.085784 27.914214,24.378678 26.5,25.792891 25.085786,24.378678 Z"
     id="rect899"
     inkscape:connector-curvature="0" />
  <path
     inkscape:connector-curvature="0"
     style="fill:#e95420;fill-opacity:1;stroke:none;stroke-width:1px;stroke-linecap:butt;stroke-linejoin:miter;stroke-opacity:1"
     d="m 31.999999,4.0000781 -4.999999,4 v -3 h -7.000001 v -2 H 27 v -3 z"
     id="path834"
     sodipodi:nodetypes="cccccccc" />
</svg>
